!!!COM: Lassus, Orlandus
!!!OPR: Novae aliquot et ante hac non ita usitatae cantiones suavissimae
!!!ONM: 1
!!!OTL@@LA: Beatus vir
**kern	**text	**kern	**text
*staff2	*staff2	*staff1	*staff1
*I"Altus	*	*I"Cantus	*
*I'A	*	*I'C	*
*clefC3	*	*clefC1	*
*mclefGv2	*	*mclefG2	*
*k[]	*	*k[]	*
*d:dor	*	*d:dor	*
*M2/1	*	*M2/1	*
*met(C|)	*	*met(C|)	*
*mmet(C|)	*	*mmet(C|)	*
*MM180	*	*MM180	*
=1	=1	=1	=1
*xywh-#44:252,59,2343,451	*	*xywh-#4:268,73,2384,456	*
0d	Be-	0r	.
=2	=2	=2	=2
1c#X	-a-	0a	Be-
1d	-tus	.	.
=3	=3	=3	=3
2G	vir	1b-X	-a-
1d	qui	.	.
.	.	1a	-tus
2d	in	.	.
=4	=4	=4	=4
2.f	sa-	2d	vir
.	.	1a	qui
4e	.	.	.
4d	.	.	.
4c	.	.	.
2d	.	2a	in
=5	=5	=5	=5
2A	-pi-	2.cc	sa-
2.f	-en-	.	.
.	.	4b	.
.	.	4a	.
4e	.	4g	.
2d	.	2a	.
=6	=6	=6	=6
2c	-ti-	2e	-pi-
2A	-a	2.cc	-en-
2.c	mo-	.	.
.	.	4b	.
.	.	2a	.
4d	.	.	.
=7	=7	=7	=7
4e	.	2g	-ti-
4c	.	.	.
2g	.	2e	-a
*xywh-#44:246,499,2351,370	*	*	*
4c	-ra-	2.g	mo-
4d	.	.	.
4e	.	.	.
4c	.	4a	.
=8	=8	=8	=8
*	*	*xywh-#4:268,529,2375,342	*
4d	.	4b	.
4e	.	4g	.
4A	.	1cc	.
4B	.	.	.
4c	.	.	.
4A	.	.	.
4d	.	2.b	-ra-
4e	.	.	.
=9	=9	=9	=9
4d	.	.	.
4c	.	4a	.
4c	.	1a	.
8B	.	.	.
8A	.	.	.
2.B	.	.	.
.	.	2g#i	-bi-
4B	-bi-	.	.
=10	=10	=10	=10
1A	-tur,	0a	-tur,
1r	.	.	.
=11	=11	=11	=11
0f	&	1r	.
.	.	0a	&
=12	=12	=12	=12
2r	.	.	.
2d	qui	.	.
2f	in	2r	.
2d	iu-	2a	qui
=13	=13	=13	=13
4A	-sti-	2cc	in
4B	.	.	.
4c	.	2a	iu-
4d	.	.	.
*xywh-#44:246,853,2351,374	*	*	*
2.c	.	4e	-sti-
.	.	4f	.
.	.	4g	.
8B	.	4a	.
8A	.	.	.
=14	=14	=14	=14
2B	.	2.g	.
2c	-ti-	.	.
.	.	8f	.
.	.	8e	.
2d	-a	2f	.
2.c	me-	2g	-ti-
=15	=15	=15	=15
.	.	2a	-a
4d	.	.	.
4e	.	4g	me-
4f	.	4a	.
*	*	*xywh-#4:268,866,2375,366	*
2.g	.	4b	.
.	.	4cc	.
.	.	2.dd	.
8f	.	.	.
8e	.	.	.
=16	=16	=16	=16
4d	.	.	.
4e	.	8cc	.
.	.	8b	.
2f	.	4a	.
.	.	4b	.
2e	-di-	2cc	.
2.g	-ta-	2b	-di-
=17	=17	=17	=17
.	.	2.a	-ta-
4f	.	.	.
1f	.	.	.
.	.	4a	-bi-
.	.	1g	-tur,
2e	-bi-	.	.
=18	=18	=18	=18
0f	-tur,	2r	.
.	.	1a	&
.	.	2d	in
=19	=19	=19	=19
2r	.	1a	sen-
1d	&	.	.
.	.	2.f	-su
2A	in	.	.
.	.	4e	.
=20	=20	=20	=20
1d	sen-	4f	.
.	.	4g	.
.	.	2a	.
2c	-su	1e	co-
1A	co-	.	.
=21	=21	=21	=21
.	.	2f#X	-gi-
2B	-gi-	2.g	-ta-
2.c	-ta-	.	.
.	.	4e	.
.	.	1cc	.
4A	.	.	.
=22	=22	=22	=22
*xywh-#44:240,1209,2353,383	*	*	*
1f	.	.	.
.	.	2a	-bit
*	*	*xywh-#4:272,1227,2373,357	*
1d	-bit,	2r	.
.	.	2a	cir-
=23	=23	=23	=23
2r	.	2b	-cum-
2e	cir-	1cc	-spe-
2f	-cum-	.	.
1g	-spe-	2b-X	-cti-
=24	=24	=24	=24
.	.	1a	-o-
2f	-cti-	.	.
2e	-o-	2g	-nem
4d	-nem	2.a	De-
4e	.	.	.
=25	=25	=25	=25
4f	.	.	.
4d	.	4b	.
4e	.	4cc	.
4f	.	4a	.
2g	.	4b	.
.	.	4cc	.
4G	De-	2.dd	.
4A	.	.	.
=26	=26	=26	=26
4B	.	.	.
4c	.	4g	.
2.d	.	2b-X	.
.	.	1a	-i,
4e	.	.	.
2f	.	.	.
=27	=27	=27	=27
1d	-i,	2r	.
.	.	2f#X	cir-
2r	.	2g	-cum-
2c#X	cir-	1a	-spe-
=28	=28	=28	=28
2d	-cum-	.	.
1e	-spe-	2g	-cti-
.	.	1f	-o-
2d	-cti-	.	.
=29	=29	=29	=29
*xywh-#44:239,1565,2351,382	*	*	*
2c	-o-	2e	-nem
2A	-nem	2.cc	De-
2.f	De-	.	.
.	.	4b	.
.	.	4a	.
4e	.	4g	.
=30	=30	=30	=30
*	*	*xywh-#4:270,1581,2373,351	*
4d	.	4a	.
4c	.	4e	.
4d	.	4f	.
4B	.	4g	.
4c	.	4a	.
4d	.	4f	.
4e	.	4g	.
4f	.	4a	.
=31	=31	=31	=31
4e	.	4g	.
4d	.	4f	.
2.d	.	4f	.
.	.	8e	.
.	.	8d	.
.	.	1e	.
8c#i	.	.	.
8B	.	.	.
2c#i	.	.	.
=32	=32	=32	=32
0dll	-i.	0dll	-i.
==	==	==	==
*-	*-	*-	*-
!!!RDF**kern: l = terminal long
!!!RDF**kern: i = editorial accidental
!!!PDT: 1590
!!!PED: Adam Berg
!!!AGN: Motet; Bicinium
!!!YOR: https://mdz-nbn-resolving.de/details:bsb00090897
!!!YOO: München, Bayerische Staatsbibliothek
!!!URL-scan: https://www.digitale-sammlungen.de/view/bsb00090897?page=4 Cantus
!!!URL-scan: https://www.digitale-sammlungen.de/view/bsb00090897?page=44 Altus
!!!IIIF: https://api.digitale-sammlungen.de/iiif/presentation/v2/bsb00090897/manifest
!!!EED: Mirko Sattig
!!!END: 2023/11/24
!!!ENC: Mirko Sattig
!!!EEV: 2024/02/10
!!!title: @{ONM}. @{OTL}
!!!system-decoration: [s1,s2]